web/abstruse/src/assets/images/avatars/avatar_27.svg

<svg width="200px" height="260px" viewBox="0 0 200 260" version="1.1" xmlns="http://www.w3.org/2000/svg" xmlns:xlink="http://www.w3.org/1999/xlink">
    <!-- Generator: Sketch 50.2 (55047) - http://www.bohemiancoding.com/sketch -->
    <desc>Created with Sketch.</desc>
    <defs>
        <path d="M124,144.610951 L124,163 L128,163 C167.764502,163 200,195.235498 200,235 L200,244 L0,244 L0,235 C-4.86974701e-15,195.235498 32.235498,163 72,163 L76,163 L76,144.610951 C58.7626345,136.422372 46.3722246,119.687011 44.3051388,99.8812385 C38.4803105,99.0577866 34,94.0521096 34,88 L34,74 C34,68.0540074 38.3245733,63.1180731 44,62.1659169 L44,56 C44,25.072054 69.072054,5.68137151e-15 100,0 C130.927946,-5.68137151e-15 156,25.072054 156,56 L156,62.1659169 C161.675427,63.1180731 166,68.0540074 166,74 L166,88 C166,94.0521096 161.51969,99.0577866 155.694861,99.8812385 C153.627775,119.687011 141.237365,136.422372 124,144.610951 Z" id="path-1"></path>
        <path d="M165.960472,29.2949161 C202.936473,32.3249982 232,63.2942856 232,101.051724 L232,110 L32,110 L32,101.051724 C32,62.9525631 61.591985,31.7649812 99.0454063,29.2195264 C99.0152598,29.5931145 99,29.9692272 99,30.3476251 C99,42.2107177 113.998461,51.8276544 132.5,51.8276544 C151.001539,51.8276544 166,42.2107177 166,30.3476251 C166,29.9946691 165.986723,29.6437014 165.960472,29.2949161 Z" id="path-3"></path>
        <rect id="path-5" x="0" y="0" width="264" height="280"></rect>
        <path d="M38,79.3595521 L38,111 C38,133.339168 51.0804213,152.623239 70,161.610951 L70,174.74565 C50.3625813,177.434228 34.6409914,182.163507 23.3845374,181.000327 C9.16164761,179.530612 1.49623627,150.795665 1,126 C0.382878875,95.1640258 29.3189583,30.7950013 40,18 C47.9231015,8.50878211 69.6952966,0.550643437 94.0001685,1 C118.30504,1.44935656 140.861928,6.81215989 149.000169,17 C161.324059,32.4276364 186.868727,91.0786423 187.000169,126 C187.093514,150.800049 177.46255,175.65995 164.000169,177 C152.920532,178.102871 137.475571,175.511343 118,173.997342 L118,161.610951 C136.919579,152.623239 150,133.339168 150,111 L150,82.9882378 C140.478735,78.1305678 131.863294,72.248172 124.153679,65.3410505 C127.362309,70.6368571 130.848786,75.1475352 134.61311,78.8730846 C107.596314,71.2928169 86.1055278,58.4501118 70.1407506,40.3449693 C62.1597317,56.8095313 51.4461487,69.8143919 38.0000014,79.3595511 Z" id="path-7"></path>
    </defs>
    <g id="Changelog" stroke="none" stroke-width="1" fill="none" fill-rule="evenodd">
        <g transform="translate(-592.000000, -2871.000000)" id="Avataaar/Default">
            <g transform="translate(560.000000, 2851.000000)">
                <g id="Body" stroke-width="1" fill-rule="evenodd" transform="translate(32.000000, 36.000000)">
                    <mask id="mask-2" fill="white">
                        <use xlink:href="#path-1"></use>
                    </mask>
                    <use fill="#D0C6AC" xlink:href="#path-1"></use>
                    <g id="Skin/👶🏽-03-Brown" mask="url(#mask-2)" fill="#D08B5B">
                        <g transform="translate(-32.000000, 0.000000)" id="Color">
                            <rect x="0" y="0" width="264" height="244"></rect>
                        </g>
                    </g>
                    <path d="M156,94 L156,102 C156,132.927946 130.927946,158 100,158 C69.072054,158 44,132.927946 44,102 L44,94 C44,124.927946 69.072054,150 100,150 C130.927946,150 156,124.927946 156,94 Z" id="Neck-Shadow" fill-opacity="0.100000001" fill="#000000" mask="url(#mask-2)"></path>
                </g>
                <g id="Clothing/Shirt-Crew-Neck" transform="translate(0.000000, 170.000000)">
                    <mask id="mask-4" fill="white">
                        <use xlink:href="#path-3"></use>
                    </mask>
                    <use id="Clothes" fill="#E6E6E6" fill-rule="evenodd" xlink:href="#path-3"></use>
                    <g id="Color/Palette/Gray-01" mask="url(#mask-4)" fill="#E6E6E6" fill-rule="evenodd">
                        <rect id="🖍Color" x="0" y="0" width="264" height="110"></rect>
                    </g>
                    <g id="Shadowy" opacity="0.599999964" stroke-width="1" fill-rule="evenodd" mask="url(#mask-4)" fill="#000000" fill-opacity="0.16">
                        <g transform="translate(92.000000, 4.000000)" id="Hola-👋🏼">
                            <ellipse cx="40.5" cy="27.8476251" rx="39.6351047" ry="26.9138272"></ellipse>
                        </g>
                    </g>
                </g>
                <g id="Face" stroke-width="1" fill-rule="evenodd" transform="translate(76.000000, 82.000000)" fill="#000000">
                    <g id="Mouth/Default" transform="translate(2.000000, 52.000000)" fill-opacity="0.699999988">
                        <path d="M40,15 C40,22.7319865 46.2680135,29 54,29 C61.7319865,29 68,22.7319865 68,15" id="Mouth"></path>
                    </g>
                    <g id="Nose/Default" transform="translate(28.000000, 40.000000)" fill-opacity="0.16">
                        <path d="M16,8 C16,12.418278 21.372583,16 28,16 C34.627417,16 40,12.418278 40,8" id="Nose"></path>
                    </g>
                    <g id="Eyes/Default-😀" transform="translate(0.000000, 8.000000)" fill-opacity="0.599999964">
                        <circle id="Eye" cx="30" cy="22" r="6"></circle>
                        <circle id="Eye" cx="82" cy="22" r="6"></circle>
                    </g>
                    <g id="Eyebrow/Outline/Default" fill-opacity="0.599999964">
                        <g id="I-Browse" transform="translate(12.000000, 6.000000)">
                            <path d="M3.63024536,11.1585767 C7.54515501,5.64986673 18.2779197,2.56083721 27.5230268,4.83118046 C28.5957248,5.0946055 29.6788665,4.43856013 29.9422916,3.36586212 C30.2057166,2.2931641 29.5496712,1.21002236 28.4769732,0.94659732 C17.7403633,-1.69001789 5.31209962,1.88699832 0.369754639,8.84142326 C-0.270109626,9.74178291 -0.0589363917,10.9903811 0.84142326,11.6302454 C1.74178291,12.2701096 2.9903811,12.0589364 3.63024536,11.1585767 Z" id="Eyebrow" fill-rule="nonzero"></path>
                            <path d="M61.6302454,11.1585767 C65.545155,5.64986673 76.2779197,2.56083721 85.5230268,4.83118046 C86.5957248,5.0946055 87.6788665,4.43856013 87.9422916,3.36586212 C88.2057166,2.2931641 87.5496712,1.21002236 86.4769732,0.94659732 C75.7403633,-1.69001789 63.3120996,1.88699832 58.3697546,8.84142326 C57.7298904,9.74178291 57.9410636,10.9903811 58.8414233,11.6302454 C59.7417829,12.2701096 60.9903811,12.0589364 61.6302454,11.1585767 Z" id="Eyebrow" fill-rule="nonzero" transform="translate(73.000154, 6.039198) scale(-1, 1) translate(-73.000154, -6.039198) "></path>
                        </g>
                    </g>
                </g>
                <g id="Top" stroke-width="1" fill-rule="evenodd">
                    <mask id="mask-6" fill="white">
                        <use xlink:href="#path-5"></use>
                    </mask>
                    <g id="Mask"></g>
                    <g id="Top/Long-Hair/Bob" mask="url(#mask-6)">
                        <g transform="translate(-1.000000, 0.000000)">
                            <g id="Hair" stroke-width="1" fill-rule="evenodd" transform="translate(39.000000, 19.000000)">
                                <mask id="mask-8" fill="white">
                                    <use xlink:href="#path-7"></use>
                                </mask>
                                <use id="Combined-Shape" fill="#E6E6E6" xlink:href="#path-7"></use>
                                <g id="Color/Hair/Pastel-Pink" mask="url(#mask-8)" fill="#F59797">
                                    <g transform="translate(-39.000000, -19.000000)" id="Color">
                                        <rect x="0" y="0" width="266" height="280"></rect>
                                    </g>
                                </g>
                            </g>
                            <g id="Facial-Hair/-Blank" transform="translate(49.000000, 72.000000)"></g>
                            <g id="Top/_Resources/Blank" transform="translate(62.000000, 85.000000)"></g>
                        </g>
                    </g>
                </g>
            </g>
        </g>
    </g>
</svg>

<svg width="200" height="260" xmlns="http://www.w3.org/2000/svg" xmlns:xlink="http://www.w3.org/1999/xlink"><defs><path d="M124 144.611V163h4c39.765 0 72 32.235 72 72v9H0v-9c0-39.765 32.235-72 72-72h4v-18.389c-17.237-8.189-29.628-24.924-31.695-44.73C38.48 99.058 34 94.052 34 88V74c0-5.946 4.325-10.882 10-11.834V56c0-30.928 25.072-56 56-56s56 25.072 56 56v6.166c5.675.952 10 5.888 10 11.834v14c0 6.052-4.48 11.058-10.305 11.881-2.067 19.806-14.458 36.541-31.695 44.73z" id="a"/><path d="M165.96 29.295c36.976 3.03 66.04 34 66.04 71.757V110H32v-8.948c0-38.1 29.592-69.287 67.045-71.832-.03.373-.045.75-.045 1.128 0 11.863 14.998 21.48 33.5 21.48 18.502 0 33.5-9.617 33.5-21.48 0-.353-.013-.704-.04-1.053z" id="c"/><path id="e" d="M0 0h264v280H0z"/><path d="M38 79.36V111c0 22.34 13.08 41.623 32 50.611v13.135c-19.637 2.688-35.359 7.418-46.615 6.254C9.162 179.53 1.496 150.796 1 126 .383 95.164 29.319 30.795 40 18 47.923 8.509 69.695.55 94 1c24.305.45 46.862 5.812 55 16 12.324 15.428 37.869 74.079 38 109 .094 24.8-9.537 49.66-23 51-11.08 1.103-26.524-1.489-46-3.003v-12.386c18.92-8.988 32-28.272 32-50.611V82.988c-9.521-4.857-18.137-10.74-25.846-17.647 3.208 5.296 6.695 9.807 10.46 13.532-27.018-7.58-48.508-20.423-64.473-38.528C62.16 56.81 51.446 69.815 38 79.36z" id="g"/></defs><g fill="none" fill-rule="evenodd"><g transform="translate(0 16)"><mask id="b" fill="#fff"><use xlink:href="#a"/></mask><use fill="#D0C6AC" xlink:href="#a"/><g mask="url(#b)" fill="#D08B5B"><path d="M-32 0h264v244H-32z"/></g><path d="M156 94v8c0 30.928-25.072 56-56 56s-56-25.072-56-56v-8c0 30.928 25.072 56 56 56s56-25.072 56-56z" fill-opacity=".1" fill="#000" mask="url(#b)"/></g><g transform="translate(-32 150)"><mask id="d" fill="#fff"><use xlink:href="#c"/></mask><use fill="#E6E6E6" xlink:href="#c"/><g mask="url(#d)" fill="#E6E6E6"><path d="M0 0h264v110H0z"/></g><g opacity=".6" mask="url(#d)" fill="#000" fill-opacity=".16"><ellipse cx="40.5" cy="27.848" rx="39.635" ry="26.914" transform="translate(92 4)"/></g></g><g fill="#000"><path d="M86 129c0 7.732 6.268 14 14 14s14-6.268 14-14" fill-opacity=".7"/><path d="M88 110c0 4.418 5.373 8 12 8s12-3.582 12-8" fill-opacity=".16"/><g transform="translate(44 70)" fill-opacity=".6"><circle cx="30" cy="22" r="6"/><circle cx="82" cy="22" r="6"/></g><g fill-rule="nonzero" fill-opacity=".6"><path d="M59.63 79.159c3.915-5.51 14.648-8.598 23.893-6.328a2 2 0 00.954-3.884c-10.737-2.637-23.165.94-28.107 7.894a2 2 0 003.26 2.318zM140.37 79.159c-3.915-5.51-14.648-8.598-23.893-6.328a2 2 0 01-.954-3.884c10.737-2.637 23.165.94 28.108 7.894a2 2 0 01-3.26 2.318z"/></g></g><g transform="translate(-32 -20)"><mask id="f" fill="#fff"><use xlink:href="#e"/></mask><g mask="url(#f)"><g transform="translate(38 19)"><mask id="h" fill="#fff"><use xlink:href="#g"/></mask><use fill="#E6E6E6" xlink:href="#g"/><g mask="url(#h)" fill="#F59797"><path d="M-39-19h266v280H-39z"/></g></g></g></g></g></svg>
